brandFactory_export/1.Light/Mail correo virus_1Light.svg

<?xml version="1.0" encoding="UTF-8"?>
<svg width="24px" height="24px" viewBox="0 0 24 24" version="1.1" xmlns="http://www.w3.org/2000/svg" xmlns:xlink="http://www.w3.org/1999/xlink">
    <title>1.Light/Mail correo virus_1Light</title>
    <g id="Symbols" stroke="none" stroke-width="1" fill="none" fill-rule="evenodd">
        <g id="1.Light/Mail-correo-virus_1Light" fill="#5CB615" fill-rule="nonzero">
            <path d="M8.93781513,18.6857143 C10.9176471,18.6857143 11.492437,17.9394958 11.492437,15.3579832 C11.492437,13.7445378 11.2470588,12.8705882 10.6689076,12.4436975 C10.292437,12.1647059 9.72773109,12.0302521 8.93781513,12.0302521 C8.14117647,12.0302521 7.57310924,12.1680672 7.2,12.4504202 C6.62857143,12.8840336 6.3865399,13.7512605 6.3865399,15.3579832 C6.38319328,17.9394958 6.95462185,18.6857143 8.93781513,18.6857143 Z M8.94117647,10.1478992 C7.28739496,10.1478992 7.1697479,10.5008403 7.1697479,11.0857143 C7.1697479,11.1865546 7.17647059,11.2739496 7.18991597,11.3478992 C7.66386555,11.1529412 8.23529412,11.0487395 8.93781513,11.0487395 C9.64369748,11.0487395 10.2184874,11.1529412 10.692437,11.3512605 C10.7058824,11.2773109 10.712605,11.189916 10.712605,11.0857143 C10.712605,10.5008403 10.594958,10.1478992 8.94117647,10.1478992 L8.94117647,10.1478992 Z M13.4285714,14.410084 C13.7008403,14.410084 13.9226891,14.6319328 13.9226891,14.9008403 L13.9226891,15.8487395 C13.9226891,16.1210084 13.7008403,16.3394958 13.4285714,16.3394958 L13.4252101,16.3394958 C13.1529412,16.3394958 12.9310924,16.1210084 12.9310924,15.8487395 L12.9310924,15.3882353 L12.4773109,15.3882353 C12.4739496,16.2319328 12.3966387,16.9747899 12.205042,17.6 L13.2571429,17.9159664 C13.4756303,17.9798319 13.6201681,18.1848739 13.610084,18.4134454 L13.5327731,19.8420168 C13.5159664,20.1042017 13.3008403,20.3092437 13.0386555,20.3058824 L13.0117647,20.3058824 C12.7394958,20.292437 12.5310924,20.0605042 12.5445378,19.7882353 L12.6016807,18.7462185 L11.7915966,18.5042017 C11.2705882,19.2436975 10.389916,19.6672269 8.93781513,19.6672269 C7.4789916,19.6672269 6.59831933,19.2403361 6.07731092,18.5008403 L5.24705882,18.7495798 L5.30084034,19.7915966 C5.31428571,20.0638655 5.10588235,20.2957983 4.83361345,20.3092437 L4.80672269,20.3092437 C4.54453782,20.3092437 4.32941176,20.107563 4.31260504,19.8453782 L4.23529412,18.4168067 C4.22184874,18.1882353 4.36638655,17.9831933 4.58487395,17.9193277 L5.6605042,17.5966387 C5.46890756,16.9714286 5.39159664,16.2319328 5.38823529,15.3915966 L4.94117647,15.3915966 L4.94117647,15.8487395 C4.94117647,16.1210084 4.71932773,16.3394958 4.44705882,16.3394958 L4.44369748,16.3394958 C4.17142857,16.3394958 3.94957983,16.1210084 3.94957983,15.8487395 L3.94957983,14.897479 C3.94957983,14.6252101 4.17142857,14.4067227 4.44369748,14.4067227 L5.42521008,14.4067227 C5.47563025,13.7512605 5.6,13.1159664 5.87226891,12.5714286 L4.58823529,12.1882353 C4.3697479,12.1243697 4.22521008,11.9193277 4.23865546,11.6907563 L4.31596639,10.2621849 C4.32605042,9.99663866 4.54789916,9.78823529 4.81680672,9.79495798 L4.83697479,9.79495798 C5.1092437,9.80840336 5.31764706,10.0403361 5.30420168,10.312605 L5.25042017,11.3546218 L6.25546218,11.6571429 C6.20504202,11.4689076 6.18151261,11.2739496 6.18151261,11.0789916 C6.18151261,9.15966387 8.04705882,9.15966387 8.94453782,9.15966387 C9.83865546,9.15966387 11.7042017,9.15966387 11.7042017,11.0789916 C11.7042017,11.287395 11.6773109,11.4722689 11.6336134,11.6436975 L12.6016807,11.3546218 L12.5445378,10.312605 C12.5310924,10.0403361 12.7394958,9.81176471 13.0117647,9.79495798 C13.3277311,9.78151261 13.5193277,9.98655462 13.5327731,10.2588235 L13.610084,11.687395 C13.6235294,11.9159664 13.4756303,12.1210084 13.2571429,12.1848739 L11.9966387,12.5613445 C12.2689076,13.1058824 12.3966387,13.7445378 12.4470588,14.4033613 C12.4470588,14.410084 13.4285714,14.410084 13.4285714,14.410084 L13.4285714,14.410084 Z M8.89747899,13.3545841 C9.1697479,13.3545841 9.39159664,13.5764706 9.39159664,13.8453782 L9.39159664,17.3915966 C9.39159664,17.6638655 9.1697479,17.8823529 8.90084034,17.8823529 L8.89747899,17.8823529 C8.62521008,17.8823529 8.40336134,17.6638655 8.40336134,17.3915966 L8.40336134,13.8453782 C8.40336134,13.5731092 8.62521008,13.3512605 8.89747899,13.3545841 L8.89747899,13.3545841 Z M22.4369748,19.5462185 C22.6890756,19.2436975 22.6252101,18.789916 22.6252101,18.7865546 L22.6285714,8.7697479 L17.5361345,11.9428571 C17.6436975,12.3697479 17.7378151,12.810084 17.7915966,13.287395 C17.8453782,13.7546218 17.8722689,14.2487395 17.8722689,14.7596639 C17.8722689,16.7932773 17.4218487,18.5109244 16.5613445,19.892437 C18.7462185,19.892437 21.0823529,19.8890756 21.4991597,19.8823529 C21.9428571,19.8722689 22.2588235,19.7613445 22.4369748,19.5462185 Z M9.31092437,22.6352941 C10.3159664,22.6184874 13.7344538,22.3462185 15.6,19.6 C16.4504202,18.3428571 16.8840336,16.7159664 16.8840336,14.7563025 C16.8840336,14.2857143 16.8571429,13.8285714 16.8067227,13.3983193 C16.1210084,7.46554622 10.8705882,6.88067227 9.27731092,6.84033613 C9.0789916,6.83361345 8.87731092,6.83361345 8.6789916,6.83361345 L8.49411765,6.83361345 C6.88403361,6.84705882 1.58655462,7.37478992 1.03529412,13.6 C1.00504202,13.9697479 0.988235294,14.3394958 0.988235294,14.7092437 C0.988235294,21.9630252 6.77983193,22.6117647 8.55798319,22.6386555 C8.81008403,22.6386555 9.08907563,22.6386555 9.31092437,22.6352941 Z M3.18655462,6.60168067 C2.95798319,6.76302521 2.82352941,7.12268908 2.81344538,7.63361345 L2.81344538,7.79831933 C4.42689076,6.45042017 6.51428571,5.87226891 8.48403361,5.85546218 C8.75294118,5.85210084 9.05210084,5.85546218 9.29747899,5.86218487 C12.4033613,5.93613445 15.8352941,7.36470588 17.2235294,10.9781513 L22.594958,7.6302521 L22.6252101,7.62016807 C22.6117647,7.12268908 22.4806723,6.76302521 22.2319328,6.58823529 L22.1243697,6.5210084 L13.9226891,1.34117647 C13.8991597,1.32436975 13.4016807,0.988235294 12.7294118,0.988235294 C12.0369748,0.988235294 11.5462185,1.32436975 11.5428571,1.32773109 C11.5394958,1.32436975 3.18655462,6.60168067 3.18655462,6.60168067 Z M23.6067227,18.7058824 C23.6134454,18.712605 23.7378151,19.5294118 23.2,20.1747899 C22.8302521,20.6184874 22.2621849,20.8504202 21.5159664,20.8638655 C21.0521008,20.8705882 18.2117647,20.8739496 15.8453782,20.8773109 C13.6605042,23.3344538 10.3596639,23.6033613 9.33109244,23.6201681 C9.17310924,23.6235294 8.98823529,23.6235294 8.80672269,23.6235294 L8.54453782,23.6235294 C7.11596639,23.6 0,23.0722689 0,14.7092437 C0,14.292437 0.0201680672,13.892437 0.0504201681,13.512605 C0.228571429,11.5058824 0.887394958,9.96302521 1.82184874,8.8 L1.82184874,7.62016807 C1.84537815,6.55798319 2.27226891,6.04033613 2.62857143,5.78823529 L2.77310924,5.69411765 L10.9848739,0.51092437 C11.502521,0.181512605 12.1008403,0.00336134454 12.712605,0 C13.7277311,0 14.4436975,0.504201681 14.4739496,0.524369748 L22.789916,5.77478992 C23.1630252,6.04033613 23.589916,6.55798319 23.6134454,7.61008403 L23.6067227,18.7058824 Z" id="Mail-correo-virus_1Light"></path>
        </g>
    </g>
</svg>

<svg width="24" height="24" viewBox="0 0 24 24" xmlns="http://www.w3.org/2000/svg"><path d="M8.938 18.686c1.98 0 2.554-.747 2.554-3.328 0-1.613-.245-2.487-.823-2.914-.377-.28-.941-.414-1.731-.414-.797 0-1.365.138-1.738.42-.571.434-.813 1.301-.813 2.908-.004 2.581.568 3.328 2.55 3.328zm.003-8.538c-1.654 0-1.771.353-1.771.938 0 .1.006.188.02.262.474-.195 1.045-.3 1.748-.3.706 0 1.28.105 1.754.303.014-.074.02-.161.02-.265 0-.585-.117-.938-1.77-.938zm4.488 4.262c.272 0 .494.222.494.49v.949c0 .272-.222.49-.494.49h-.004a.492.492 0 01-.494-.49v-.46h-.454c-.003.843-.08 1.586-.272 2.211l1.052.316a.493.493 0 01.353.497l-.077 1.429a.491.491 0 01-.494.464h-.027a.493.493 0 01-.467-.518l.057-1.042-.81-.242c-.521.74-1.402 1.163-2.854 1.163-1.459 0-2.34-.427-2.86-1.166l-.83.249.053 1.042a.493.493 0 01-.467.517h-.027a.494.494 0 01-.494-.464l-.078-1.428a.487.487 0 01.35-.498l1.076-.322c-.192-.626-.27-1.365-.273-2.205h-.447v.457c0 .272-.222.49-.494.49h-.003a.492.492 0 01-.494-.49v-.952c0-.272.221-.49.494-.49h.981c.05-.656.175-1.291.447-1.836l-1.284-.383a.487.487 0 01-.35-.497l.078-1.429a.487.487 0 01.5-.467h.021c.272.013.48.245.467.518l-.054 1.042 1.005.302a2.236 2.236 0 01-.073-.578c0-1.92 1.865-1.92 2.763-1.92.894 0 2.76 0 2.76 1.92 0 .208-.028.393-.071.565l.968-.29-.057-1.041a.495.495 0 01.467-.518c.316-.013.507.192.52.464l.078 1.428a.49.49 0 01-.353.498l-1.26.376c.272.545.4 1.184.45 1.842 0 .007.982.007.982.007zm-4.532-1.055c.273 0 .495.221.495.49v3.547c0 .272-.222.49-.491.49h-.004a.492.492 0 01-.494-.49v-3.547a.49.49 0 01.494-.49zm13.54 6.191c.252-.302.188-.756.188-.76L22.63 8.77l-5.093 3.173c.108.427.202.867.256 1.344.053.468.08.962.08 1.473 0 2.033-.45 3.75-1.31 5.132 2.184 0 4.52-.003 4.937-.01.444-.01.76-.12.938-.336zm-13.126 3.09c1.005-.018 4.423-.29 6.289-3.036.85-1.257 1.284-2.884 1.284-4.844 0-.47-.027-.927-.077-1.358-.686-5.932-5.936-6.517-7.53-6.558-.198-.006-.4-.006-.598-.006h-.185c-1.61.013-6.907.54-7.459 6.766-.03.37-.047.74-.047 1.11 0 7.253 5.792 7.902 7.57 7.929.252 0 .531 0 .753-.004zM3.187 6.601c-.229.161-.363.52-.374 1.032v.164C4.427 6.45 6.514 5.872 8.484 5.855c.269-.003.568 0 .813.007 3.106.074 6.538 1.503 7.927 5.116l5.371-3.348.03-.01c-.013-.497-.144-.857-.393-1.032l-.108-.067-8.201-5.18a2.272 2.272 0 00-1.194-.353c-.692 0-1.183.336-1.186.34a7019.75 7019.75 0 00-8.356 5.274zm20.42 12.104c.006.007.13.823-.407 1.469-.37.443-.938.675-1.684.689-.464.007-3.304.01-5.67.013-2.185 2.457-5.486 2.726-6.515 2.743-.158.004-.343.004-.524.004h-.262C7.116 23.6 0 23.072 0 14.709c0-.417.02-.817.05-1.196.179-2.007.837-3.55 1.772-4.713V7.62c.023-1.062.45-1.58.807-1.832l.144-.094L10.985.511A3.252 3.252 0 0112.713 0c1.015 0 1.73.504 1.76.524l8.317 5.25c.373.266.8.784.823 1.836l-.006 11.096z" fill="#5CB615" fill-rule="nonzero"/></svg>
